X:559
T:Miss MacKenzie of Gairloch
R:Strathspey
B:The Athole Collection
M:C
L:1/8
K:A Minor
B|A/A/A B>d e>de>g|G/G/G B>d g>ed>B|A/A/A B>d e>de>g|
G/G/G B>d e>AA:|
|:^g|a^fea ed^cA|g>ed>g d>cB>G|1 a^fe>a e>d^c>A|G/G/G B>d e>AA:|2
A>Bc>d e>de>g|G/G/G B>d e>AA||

